X:37
T:Jack's Whim. JJo8.037
%%VWML:JohnsonVol8-2184-p19-0
F:http://www.vwml.org/record/JohnsonVol8/2184/p19
Z:Transcribed by Simon Furey and Lewis Jones
Z:vmp.Simon Wilson 2013 www.village-music-project.org.uk
Z:Dance added by John Chambers 2017
M:6/8
L:1/8
%Q:3/8=120
K:G
|: D |\
G2D B2G | d2B g2d | efg dcB | cAG FED |\
E<EG F<FA | G<GB A2c | Bdg dcB | {B}A3- A2 :|
|: d |\
d(=fe) dcB | ced cBA | Bdc BAG | FAG FED |\
EFG ABc | FGA Bcd | Bdg B>cA | G3-G2 :|
W: Cast off and half figure at Top .|.
W:Cross over and turn your Partner :||.
W:Hands 4 at Bottom :||. Right and
W:Left at top :||:
W:
T:Maddox's Delight. JJo8.038
B:J.Johnson Choice Collection Vol 8 1758
Z:vmp.Simon Wilson 2013 www.village-music-project.org.uk
Z:Dance added by John Chambers 2017
M:6/8
L:1/8
%Q:3/8=120
K:D
A |\
dfa gec | dAG FED | CDE FGA | Bcd AFD |\
EF^G ABc | def e^ga | fdB {cd}e3 | dB^G A2 :|
|: A |\
AB=c BGG, | B^cd c2A | Bcd efg | agf {f}e2a |\
bgd G2{ga}b | afd F2d | Bgf edc | dAFD2 :|
W: Right hands across .|. back again
W:Left hands across .||. Lead thro' the
W:3d Cu. foot it to your Partner :||.
W:Right and Left at top :||:
W:
